X: 926
T: Staten Island Hornpipe
C:Traditional
B: jims roots
M:4/4
L:1/8
Q: 1/4=100
K:D
V:1 
%N:Tabledited by  Mike Stangeland
%Q:440
AG |: "D"FD FG A2 Bc | defe dcBA | "G"B2 GB "D"A2 FA | "Em"G2 E2 "A7"E2 AG |
"D"FDFG A2 Bc | "D"defe dcBA | "G"d2 d2 "A7"efge |[1 f2 d2 d2 AG:| [2 f2 d2 d2 fg||
"D"a2 fa "A"g2 eg | "D"f2 df"A"ec A2 | "C"=c2 c2 e=fge | "C"=c2 c2 e=fge |
"D"agfa "A"gfeg | "D"fedf "A"ec A2 | "D"d2 d2 "A7"efge :| "D"f2 d2 d4 ||
% abcbook-tune_id 6298c2870415123b7697f4f1


% abcbook-boost 0
% abcbook-tablature 
% abcbook-transpose 
% abcbook-lastupdated 1654178440861
% abcbook-soundfonts 
% abcbook-repeats 1


